src/Images/NetflixLogo.svg

<?xml version="1.0" encoding="UTF-8"?>
<!DOCTYPE svg  PUBLIC '-//W3C//DTD SVG 1.1//EN'  'http://www.w3.org/Graphics/SVG/1.1/DTD/svg11.dtd'>
<svg clip-rule="evenodd" fill-rule="evenodd" image-rendering="optimizeQuality" shape-rendering="geometricPrecision" text-rendering="geometricPrecision" version="1.1" viewBox="0 0 300 94" xmlns="http://www.w3.org/2000/svg">
<path d="m-0.5 7.5v-1c5.1186-0.6031 9.7853 0.06356 14 2-4.5704-0.94104-9.237-1.2744-14-1z" fill="#E50914" opacity=".667"/>
<path d="m134.5 6.5v1h-36v11h12v60h3c-1.068 0.9345-2.401 1.2678-4 1v-60h-12v-13h37z" fill="#E50914" opacity=".667"/>
<path d="m271.5 8.5c-4.434-1.2944-8.767-1.2944-13 0-0.543-0.05999-0.876-0.39333-1-1 2.333-0.33333 4.667-0.66667 7-1 2.769 0.02856 5.103 0.69522 7 2z" fill="#E50914" opacity=".667"/>
<path d="m299.5 6.5v3h-1c-1.548-1.2943-3.548-1.9609-6-2-2.421 0.06002-4.754 0.39335-7 1 4.215-1.9364 8.881-2.6031 14-2z" fill="#E50914" opacity=".667"/>
<path d="m-0.5 7.5c4.763-0.27438 9.4296 0.05896 14 1 4.0599 10.512 7.7265 21.179 11 32-0.3799 2.198 0.2868 3.8646 2 5v1c-0.2529 2.3273 0.4137 4.3273 2 6 0.9993-14.985 1.3327-29.985 1-45h11v76c-4.1211 0.6978-8.2877 1.3645-12.5 2-0.5-0.3333-1-0.6667-1.5-1-4.7396-12.553-9.0729-25.219-13-38-0.2086-1.4217-0.7086-2.755-1.5-4-0.4999 14.663-0.6666 29.33-0.5 44-1.9147-0.2845-3.5813 0.0489-5 1-2.217 0.8686-4.5504 1.202-7 1v-81z" fill="#E50914"/>
<path d="m40.5 83.5v-76h-11c0.3327 15.015-7e-4 30.015-1 45-1.5863-1.6727-2.2529-3.6727-2-6 0.7679 0.7625 1.2679 1.7625 1.5 3 0.4999-14.33 0.6666-28.663 0.5-43h13c0.3311 25.839-0.0022 51.505-1 77z" fill="#E50914" opacity=".8"/>
<path d="m85.5 7.5h-30v74h6c-2.1074 0.9682-4.4407 1.3016-7 1v-76c10.514-0.32756 20.847 0.00577 31 1z" fill="#E50914" opacity=".62"/>
<path d="m85.5 7.5v11h-18c-0.324 6.8543 0.0093 13.521 1 20h14v11h-15c-0.3235 6.5221 0.0098 12.855 1 19 5.672-0.2599 11.339-0.5932 17-1v13c-7.9948 0.4355-15.995 0.7688-24 1h-6v-74h30z" fill="#E50914"/>
<path d="m134.5 7.5v11h-12v60h-9-3v-60h-12v-11h36z" fill="#E50914"/>
<path d="m177.5 6.5v1h-30v70h12c-0.327-9.1822 7e-3 -18.182 1-27v28h-14v-72h31z" fill="#E50914" opacity=".388"/>
<path d="m177.5 7.5v11h-18c-0.324 6.8543 9e-3 13.521 1 20h15v12h-15c-0.993 8.8178-1.327 17.818-1 27h-12v-70h30z" fill="#E50914"/>
<path d="m190.5 6.5v1 71c1.599-0.2678 2.932 0.0655 4 1h-5c-0.331-24.506 2e-3 -48.839 1-73z" fill="#E50914" opacity=".259"/>
<path d="m190.5 7.5h12c-0.655 20.361 0.012 40.361 2 60h5c3.462 0.9816 7.129 1.315 11 1v11h-12-14c-1.068-0.9345-2.401-1.2678-4-1v-71z" fill="#E50914"/>
<path d="m190.5 7.5v-1h13c-0.321 20.409 0.012 40.742 1 61-1.988-19.639-2.655-39.639-2-60h-12z" fill="#E50914" opacity=".612"/>
<path d="m238.5 81.5h7v-74h-12v74c-0.998-24.828-1.331-49.828-1-75h14v76c-2.885 0.3064-5.552-0.0269-8-1z" fill="#E50914" opacity=".396"/>
<path d="m238.5 81.5h-5v-74h12v74h-7z" fill="#E50914"/>
<path d="m271.5 8.5c2.629 5.372 4.796 11.039 6.5 17 2.55-5.7566 5.05-11.423 7.5-17 2.246-0.60665 4.579-0.93998 7-1 2.452 0.03907 4.452 0.70574 6 2-4.368 11.933-9.034 23.767-14 35.5 4.964 13.06 9.631 26.227 14 39.5v3h-4c-3.507 0.5065-6.674-0.1602-9.5-2-2.278-6.6651-4.444-13.332-6.5-20-0.532-2.9596-1.199-3.2929-2-1-2.396 6.3491-4.896 12.682-7.5 19-3.466 1.2167-6.966 1.2167-10.5 0-0.418-0.7216-1.084-1.2216-2-1.5 0.88-1.3561 1.214-2.8561 1-4.5 4.229-11.182 8.562-22.349 13-33.5-4.308-11.757-8.308-23.59-12-35.5 4.233-1.2944 8.566-1.2944 13 0z" fill="#E50914"/>
<path d="m177.5 6.5c0.985 4.1344 1.318 8.4677 1 13h-18v19c-0.991-6.479-1.324-13.146-1-20h18v-11-1z" fill="#E50914" opacity=".133"/>
<path d="m85.5 18.5c-5.4753 0.9889-11.142 1.3222-17 1v19c-0.9907-6.479-1.324-13.146-1-20h18z" fill="#E50914" opacity=".247"/>
<path d="m134.5 6.5c0.985 4.1344 1.318 8.4677 1 13h-12c0.33 19.84-3e-3 39.507-1 59v-60h12v-11-1z" fill="#E50914" opacity=".145"/>
<path d="m13.5 46.5c-0.9957 13.49-1.329 27.156-1 41h-6c1.4187-0.9511 3.0853-1.2845 5-1-0.1666-14.67 1e-4 -29.337 0.5-44 0.7914 1.245 1.2914 2.5783 1.5 4z" fill="#E50914" opacity=".298"/>
<path d="m24.5 40.5c1.0375 1.4303 1.7041 3.097 2 5-1.7132-1.1354-2.3799-2.802-2-5z" fill="#E50914" opacity=".91"/>
<path d="m82.5 38.5c0.9834 3.7984 1.3168 7.7984 1 12h-15v18c-0.9902-6.1446-1.3235-12.478-1-19h15v-11z" fill="#E50914" opacity=".8"/>
<path d="m278.5 65.5c-0.667-0.3333-1.333-0.6667-2-1 0.801-2.2929 1.468-1.9596 2 1z" fill="#E50914" opacity=".004"/>
<path d="m209.5 67.5h12v13c-4.532 0.3182-8.866-0.0151-13-1h12v-11c-3.871 0.315-7.538-0.0184-11-1z" fill="#E50914" opacity=".349"/>
<path d="m257.5 77.5c0.214 1.6439-0.12 3.1439-1 4.5 0.916 0.2784 1.582 0.7784 2 1.5h-3c0.095-2.2857 0.762-4.2857 2-6z" fill="#E50914" opacity=".984"/>
<path d="m298.5 84.5h1v4c-1.915 0.2845-3.581-0.0489-5-1h4v-3z" fill="#E50914" opacity=".525"/>
</svg>

<?xml version="1.0" encoding="UTF-8"?>
<!DOCTYPE svg PUBLIC "-//W3C//DTD SVG 1.1//EN" "http://www.w3.org/Graphics/SVG/1.1/DTD/svg11.dtd">
<svg xmlns="http://www.w3.org/2000/svg" version="1.1" width="300px" height="94px" style="shape-rendering:geometricPrecision; text-rendering:geometricPrecision; image-rendering:optimizeQuality; fill-rule:evenodd; clip-rule:evenodd" xmlns:xlink="http://www.w3.org/1999/xlink">
<g><path style="opacity:0.667" fill="#E50914" d="M -0.5,7.5 C -0.5,7.16667 -0.5,6.83333 -0.5,6.5C 4.6186,5.8969 9.28526,6.56356 13.5,8.5C 8.92963,7.55896 4.26296,7.22562 -0.5,7.5 Z"/></g>
<g><path style="opacity:0.667" fill="#E50914" d="M 134.5,6.5 C 134.5,6.83333 134.5,7.16667 134.5,7.5C 122.5,7.5 110.5,7.5 98.5,7.5C 98.5,11.1667 98.5,14.8333 98.5,18.5C 102.5,18.5 106.5,18.5 110.5,18.5C 110.5,38.5 110.5,58.5 110.5,78.5C 111.5,78.5 112.5,78.5 113.5,78.5C 112.432,79.4345 111.099,79.7678 109.5,79.5C 109.5,59.5 109.5,39.5 109.5,19.5C 105.5,19.5 101.5,19.5 97.5,19.5C 97.5,15.1667 97.5,10.8333 97.5,6.5C 109.833,6.5 122.167,6.5 134.5,6.5 Z"/></g>
<g><path style="opacity:0.667" fill="#E50914" d="M 271.5,8.5 C 267.066,7.20565 262.733,7.20565 258.5,8.5C 257.957,8.44001 257.624,8.10667 257.5,7.5C 259.833,7.16667 262.167,6.83333 264.5,6.5C 267.269,6.52856 269.603,7.19522 271.5,8.5 Z"/></g>
<g><path style="opacity:0.667" fill="#E50914" d="M 299.5,6.5 C 299.5,7.5 299.5,8.5 299.5,9.5C 299.167,9.5 298.833,9.5 298.5,9.5C 296.952,8.20574 294.952,7.53907 292.5,7.5C 290.079,7.56002 287.746,7.89335 285.5,8.5C 289.715,6.56356 294.381,5.8969 299.5,6.5 Z"/></g>
<g><path style="opacity:1" fill="#E50914" d="M -0.5,7.5 C 4.26296,7.22562 8.92963,7.55896 13.5,8.5C 17.5599,19.0124 21.2265,29.679 24.5,40.5C 24.1201,42.698 24.7868,44.3646 26.5,45.5C 26.5,45.8333 26.5,46.1667 26.5,46.5C 26.2471,48.8273 26.9137,50.8273 28.5,52.5C 29.4993,37.5148 29.8327,22.5148 29.5,7.5C 33.1667,7.5 36.8333,7.5 40.5,7.5C 40.5,32.8333 40.5,58.1667 40.5,83.5C 36.3789,84.1978 32.2123,84.8645 28,85.5C 27.5,85.1667 27,84.8333 26.5,84.5C 21.7604,71.9474 17.4271,59.2807 13.5,46.5C 13.2914,45.0783 12.7914,43.745 12,42.5C 11.5001,57.1629 11.3334,71.8295 11.5,86.5C 9.58533,86.2155 7.91866,86.5489 6.5,87.5C 4.28298,88.3686 1.94965,88.702 -0.5,88.5C -0.5,61.5 -0.5,34.5 -0.5,7.5 Z"/></g>
<g><path style="opacity:0.8" fill="#E50914" d="M 40.5,83.5 C 40.5,58.1667 40.5,32.8333 40.5,7.5C 36.8333,7.5 33.1667,7.5 29.5,7.5C 29.8327,22.5148 29.4993,37.5148 28.5,52.5C 26.9137,50.8273 26.2471,48.8273 26.5,46.5C 27.2679,47.2625 27.7679,48.2625 28,49.5C 28.4999,35.1705 28.6666,20.8372 28.5,6.5C 32.8333,6.5 37.1667,6.5 41.5,6.5C 41.8311,32.3388 41.4978,58.0054 40.5,83.5 Z"/></g>
<g><path style="opacity:0.62" fill="#E50914" d="M 85.5,7.5 C 75.5,7.5 65.5,7.5 55.5,7.5C 55.5,32.1667 55.5,56.8333 55.5,81.5C 57.5,81.5 59.5,81.5 61.5,81.5C 59.3926,82.4682 57.0593,82.8016 54.5,82.5C 54.5,57.1667 54.5,31.8333 54.5,6.5C 65.0135,6.17244 75.3468,6.50577 85.5,7.5 Z"/></g>
<g><path style="opacity:1" fill="#E50914" d="M 85.5,7.5 C 85.5,11.1667 85.5,14.8333 85.5,18.5C 79.5,18.5 73.5,18.5 67.5,18.5C 67.176,25.3543 67.5093,32.021 68.5,38.5C 73.1667,38.5 77.8333,38.5 82.5,38.5C 82.5,42.1667 82.5,45.8333 82.5,49.5C 77.5,49.5 72.5,49.5 67.5,49.5C 67.1765,56.0221 67.5098,62.3554 68.5,68.5C 74.172,68.2401 79.8387,67.9068 85.5,67.5C 85.5,71.8333 85.5,76.1667 85.5,80.5C 77.5052,80.9355 69.5052,81.2688 61.5,81.5C 59.5,81.5 57.5,81.5 55.5,81.5C 55.5,56.8333 55.5,32.1667 55.5,7.5C 65.5,7.5 75.5,7.5 85.5,7.5 Z"/></g>
<g><path style="opacity:1" fill="#E50914" d="M 134.5,7.5 C 134.5,11.1667 134.5,14.8333 134.5,18.5C 130.5,18.5 126.5,18.5 122.5,18.5C 122.5,38.5 122.5,58.5 122.5,78.5C 119.5,78.5 116.5,78.5 113.5,78.5C 112.5,78.5 111.5,78.5 110.5,78.5C 110.5,58.5 110.5,38.5 110.5,18.5C 106.5,18.5 102.5,18.5 98.5,18.5C 98.5,14.8333 98.5,11.1667 98.5,7.5C 110.5,7.5 122.5,7.5 134.5,7.5 Z"/></g>
<g><path style="opacity:0.388" fill="#E50914" d="M 177.5,6.5 C 177.5,6.83333 177.5,7.16667 177.5,7.5C 167.5,7.5 157.5,7.5 147.5,7.5C 147.5,30.8333 147.5,54.1667 147.5,77.5C 151.5,77.5 155.5,77.5 159.5,77.5C 159.173,68.3178 159.507,59.3178 160.5,50.5C 160.5,59.8333 160.5,69.1667 160.5,78.5C 155.833,78.5 151.167,78.5 146.5,78.5C 146.5,54.5 146.5,30.5 146.5,6.5C 156.833,6.5 167.167,6.5 177.5,6.5 Z"/></g>
<g><path style="opacity:1" fill="#E50914" d="M 177.5,7.5 C 177.5,11.1667 177.5,14.8333 177.5,18.5C 171.5,18.5 165.5,18.5 159.5,18.5C 159.176,25.3543 159.509,32.021 160.5,38.5C 165.5,38.5 170.5,38.5 175.5,38.5C 175.5,42.5 175.5,46.5 175.5,50.5C 170.5,50.5 165.5,50.5 160.5,50.5C 159.507,59.3178 159.173,68.3178 159.5,77.5C 155.5,77.5 151.5,77.5 147.5,77.5C 147.5,54.1667 147.5,30.8333 147.5,7.5C 157.5,7.5 167.5,7.5 177.5,7.5 Z"/></g>
<g><path style="opacity:0.259" fill="#E50914" d="M 190.5,6.5 C 190.5,6.83333 190.5,7.16667 190.5,7.5C 190.5,31.1667 190.5,54.8333 190.5,78.5C 192.099,78.2322 193.432,78.5655 194.5,79.5C 192.833,79.5 191.167,79.5 189.5,79.5C 189.169,54.9943 189.502,30.6609 190.5,6.5 Z"/></g>
<g><path style="opacity:1" fill="#E50914" d="M 190.5,7.5 C 194.5,7.5 198.5,7.5 202.5,7.5C 201.845,27.8613 202.512,47.8613 204.5,67.5C 206.167,67.5 207.833,67.5 209.5,67.5C 212.962,68.4816 216.629,68.815 220.5,68.5C 220.5,72.1667 220.5,75.8333 220.5,79.5C 216.5,79.5 212.5,79.5 208.5,79.5C 203.833,79.5 199.167,79.5 194.5,79.5C 193.432,78.5655 192.099,78.2322 190.5,78.5C 190.5,54.8333 190.5,31.1667 190.5,7.5 Z"/></g>
<g><path style="opacity:0.612" fill="#E50914" d="M 190.5,7.5 C 190.5,7.16667 190.5,6.83333 190.5,6.5C 194.833,6.5 199.167,6.5 203.5,6.5C 203.179,26.9091 203.512,47.2424 204.5,67.5C 202.512,47.8613 201.845,27.8613 202.5,7.5C 198.5,7.5 194.5,7.5 190.5,7.5 Z"/></g>
<g><path style="opacity:0.396" fill="#E50914" d="M 238.5,81.5 C 240.833,81.5 243.167,81.5 245.5,81.5C 245.5,56.8333 245.5,32.1667 245.5,7.5C 241.5,7.5 237.5,7.5 233.5,7.5C 233.5,32.1667 233.5,56.8333 233.5,81.5C 232.502,56.6722 232.169,31.6722 232.5,6.5C 237.167,6.5 241.833,6.5 246.5,6.5C 246.5,31.8333 246.5,57.1667 246.5,82.5C 243.615,82.8064 240.948,82.4731 238.5,81.5 Z"/></g>
<g><path style="opacity:1" fill="#E50914" d="M 238.5,81.5 C 236.833,81.5 235.167,81.5 233.5,81.5C 233.5,56.8333 233.5,32.1667 233.5,7.5C 237.5,7.5 241.5,7.5 245.5,7.5C 245.5,32.1667 245.5,56.8333 245.5,81.5C 243.167,81.5 240.833,81.5 238.5,81.5 Z"/></g>
<g><path style="opacity:1" fill="#E50914" d="M 271.5,8.5 C 274.129,13.872 276.296,19.5387 278,25.5C 280.55,19.7434 283.05,14.0768 285.5,8.5C 287.746,7.89335 290.079,7.56002 292.5,7.5C 294.952,7.53907 296.952,8.20574 298.5,9.5C 294.132,21.4332 289.466,33.2666 284.5,45C 289.464,58.06 294.131,71.2267 298.5,84.5C 298.5,85.5 298.5,86.5 298.5,87.5C 297.167,87.5 295.833,87.5 294.5,87.5C 290.993,88.0065 287.826,87.3398 285,85.5C 282.722,78.8349 280.556,72.1683 278.5,65.5C 277.968,62.5404 277.301,62.2071 276.5,64.5C 274.104,70.8491 271.604,77.1825 269,83.5C 265.534,84.7167 262.034,84.7167 258.5,83.5C 258.082,82.7784 257.416,82.2784 256.5,82C 257.38,80.6439 257.714,79.1439 257.5,77.5C 261.729,66.3178 266.062,55.1511 270.5,44C 266.192,32.2429 262.192,20.4096 258.5,8.5C 262.733,7.20565 267.066,7.20565 271.5,8.5 Z"/></g>
<g><path style="opacity:0.133" fill="#E50914" d="M 177.5,6.5 C 178.485,10.6344 178.818,14.9677 178.5,19.5C 172.5,19.5 166.5,19.5 160.5,19.5C 160.5,25.8333 160.5,32.1667 160.5,38.5C 159.509,32.021 159.176,25.3543 159.5,18.5C 165.5,18.5 171.5,18.5 177.5,18.5C 177.5,14.8333 177.5,11.1667 177.5,7.5C 177.5,7.16667 177.5,6.83333 177.5,6.5 Z"/></g>
<g><path style="opacity:0.247" fill="#E50914" d="M 85.5,18.5 C 80.0247,19.4889 74.358,19.8222 68.5,19.5C 68.5,25.8333 68.5,32.1667 68.5,38.5C 67.5093,32.021 67.176,25.3543 67.5,18.5C 73.5,18.5 79.5,18.5 85.5,18.5 Z"/></g>
<g><path style="opacity:0.145" fill="#E50914" d="M 134.5,6.5 C 135.485,10.6344 135.818,14.9677 135.5,19.5C 131.5,19.5 127.5,19.5 123.5,19.5C 123.83,39.3404 123.497,59.0071 122.5,78.5C 122.5,58.5 122.5,38.5 122.5,18.5C 126.5,18.5 130.5,18.5 134.5,18.5C 134.5,14.8333 134.5,11.1667 134.5,7.5C 134.5,7.16667 134.5,6.83333 134.5,6.5 Z"/></g>
<g><path style="opacity:0.298" fill="#E50914" d="M 13.5,46.5 C 12.5043,59.9898 12.171,73.6565 12.5,87.5C 10.5,87.5 8.5,87.5 6.5,87.5C 7.91866,86.5489 9.58533,86.2155 11.5,86.5C 11.3334,71.8295 11.5001,57.1629 12,42.5C 12.7914,43.745 13.2914,45.0783 13.5,46.5 Z"/></g>
<g><path style="opacity:0.91" fill="#E50914" d="M 24.5,40.5 C 25.5375,41.9303 26.2041,43.597 26.5,45.5C 24.7868,44.3646 24.1201,42.698 24.5,40.5 Z"/></g>
<g><path style="opacity:0.8" fill="#E50914" d="M 82.5,38.5 C 83.4834,42.2984 83.8168,46.2984 83.5,50.5C 78.5,50.5 73.5,50.5 68.5,50.5C 68.5,56.5 68.5,62.5 68.5,68.5C 67.5098,62.3554 67.1765,56.0221 67.5,49.5C 72.5,49.5 77.5,49.5 82.5,49.5C 82.5,45.8333 82.5,42.1667 82.5,38.5 Z"/></g>
<g><path style="opacity:0.004" fill="#E50914" d="M 278.5,65.5 C 277.833,65.1667 277.167,64.8333 276.5,64.5C 277.301,62.2071 277.968,62.5404 278.5,65.5 Z"/></g>
<g><path style="opacity:0.349" fill="#E50914" d="M 209.5,67.5 C 213.5,67.5 217.5,67.5 221.5,67.5C 221.5,71.8333 221.5,76.1667 221.5,80.5C 216.968,80.8182 212.634,80.4849 208.5,79.5C 212.5,79.5 216.5,79.5 220.5,79.5C 220.5,75.8333 220.5,72.1667 220.5,68.5C 216.629,68.815 212.962,68.4816 209.5,67.5 Z"/></g>
<g><path style="opacity:0.984" fill="#E50914" d="M 257.5,77.5 C 257.714,79.1439 257.38,80.6439 256.5,82C 257.416,82.2784 258.082,82.7784 258.5,83.5C 257.5,83.5 256.5,83.5 255.5,83.5C 255.595,81.2143 256.262,79.2143 257.5,77.5 Z"/></g>
<g><path style="opacity:0.525" fill="#E50914" d="M 298.5,84.5 C 298.833,84.5 299.167,84.5 299.5,84.5C 299.5,85.8333 299.5,87.1667 299.5,88.5C 297.585,88.7845 295.919,88.4511 294.5,87.5C 295.833,87.5 297.167,87.5 298.5,87.5C 298.5,86.5 298.5,85.5 298.5,84.5 Z"/></g>
</svg>
